!!!SOCIAL_FUNCTION:	corn dance songs
!!!PDT:	1932
!!!OTL: No_19_Corn_Dance_Song_(e).krn
!!!REG: Southwest
!!!LANG: Non-Tone
!!!LING_GROUP: Yuman-Cochimi
**kern
*staff1
=1-
*clefF4
*k[b-e-a-]
*M2/4
8E-\L
8E-\J
8G\L
8F\J
=2
4F\
8E-\
8r
=3
8BB-/L
8E-/J
8E-\L
8G\J
=4
4F\
8E-\
8r
=5
8G\L
8F\J
8A-\L
8E-\J
=6
4F\
8E-\
8r
=7
8G\L
8F\J
8A-\L
8E-\J
=8
4F\
8E-\
8r
=9
8BB-/L
8BB-/J
8E-\L
8G\J
=10
4F\
8E-\
8r
=11
8BB-/L
8BB-/J
8E-\L
8G\J
=12
4F\
8E-\
8r
=13
8G\L
8F\J
8A-\L
8E-\J
=14
4F\
8E-\
8r
=15
8G\L
8G\J
8G\L
8G\J
=16
4F\
8E-\
8r
=17
8BB-/L
8BB-/J
8E-\L
8G\J
=18
4F\
8E-\
8r
=19
8BB-/L
8BB-/J
8E-\L
8G\J
=20
4F\
8E-\
8r
=21
8G\L
8G\J
8G\L
8G\J
=22
4F\
8E-\
8r
=23
8G\L
8G\J
8G\L
8G\J
=24
4F\
8E-\
8r
=25
8BB-/L
8BB-/J
8E-\L
8G\J
=26
4F\
8E-\
16r
16G\
=27
8G\L
8B-\J
8B-\L
8B-\J
=28
8B-\L
8A-\J
8G\
16r
16G\
=29
8G\L
8F\J
8G\L
8A-\J
=30
4F\
8E-\
8r
=31
8G\L
8G\J
8G\L
8G\J
=32
4F\
8E-\
8r
=33
8G\L
8G\J
8G\L
8G\J
=34
4F\
8E-\
8r
=35
8BB-/L
8BB-/J
8E-\L
8G\J
=36
4F\
8E-\
8r
=37
8BB-/L
8BB-/J
8E-\L
8G\J
=38
4F\
8E-\
8r
==
*-
